!!!COM: Bach, Johann Sebastian
!!!OPR: Inventio
!!!OTL: Inventio 12
!!!XEN: Two-part Inventions [for keyboard]
!!!ONM: No. 12
!!!ONB: In A major.
!!!SCT: BWV 783
!!!YEC: Copyright 1994, David Huron
!!!YEM: Rights to all derivative electronic formats reserved.
!! Performance duration: 1:09; performance tempo: 109.6 quarter-notes per min.
!! (Andras Schiff, piano, "Two-Part Inventions BWV 772a-786; Three-part
!! Inventions BWV 787-801" Decca 411 974-2)
**kern	**kern
*staff2	*staff1
*clefF4	*clefG2
*k[f#c#g#]	*k[f#c#g#]
*A:	*A:
*M12/8	*M12/8
*MM109.6	*MM109.6
=1-	=1-
16A	4aW
16B	.
16c#	.
16B	.
16A	8a
16G#	.
16F#	4aW
16G#	.
16A	.
16G#	.
16F#	8a
16E	.
16D	[2.bO
16F#	.
16A	.
16F#	.
16D	.
16F#	.
16BB	.
16D	.
16F#	.
16D	.
16BB	.
16D	.
=2	=2
8GG#	16b]
.	16a
8BB	16g#
.	16a
8GG#	16b
.	16cc#
8EE	16dd
.	16cc#
8FF#	16dd
.	16ff#
8GG#	16ee
.	16dd
4AA	16cc#
.	16a
.	16cc#
.	16ee
8r	16aa
.	16ff#
4.r	16dd#
.	16b
.	16dd#
.	16ff#
.	16aa
.	16ff#
=3	=3
4EW	16gg#
.	16aa
.	16gg#
.	16ff#
8E	16ee
.	16dd#
4EW	16cc#
.	16dd#
.	16ee
.	16dd#
8E	16cc#
.	16b
[2.F#O	16a
.	16cc#
.	16ee
.	16cc#
.	16a
.	16cc#
.	16f#
.	16a
.	16cc#
.	16a
.	16f#
.	16a
=4	=4
16F#]	8d#
16E	.
16D#	8f#
16E	.
16F#	8d#
16G#	.
16A	16B
16G#	16d#
16A	16f#
16c#	16a
16B	16g#
16A	16f#
16G#	16e
16E	16g#
16G#	16b
16B	16ee
16e	16b
16B	16g#
16G#	4e
16E	.
16G#	.
16B	.
16dn	8r
16B	.
=5	=5
16c#	4eeW
16d	.
16e	.
16d	.
16c#	8ee
16B	.
16A	4eeW
16B	.
16c#	.
16B	.
16A	8ee
16G#	.
8F#	16ee
.	16aa
8f#	16ee
.	16cc#
8c#	16a
.	16cc#
8A	16ee
.	16aa
8F#	16ee
.	16cc#
8A	16a
.	16cc#
=6	=6
16B	4dd
16c#	.
16d	.
16c#	.
16B	8dd
16A	.
16G#	4dd
16A	.
16B	.
16A	.
16G#	8dd
16F#	.
8E	16dd
.	16bb
8BB	16gg#
.	16dd
8GG#	16b
.	16dd
4EE	16gg#
.	16bb
.	16gg#
.	16dd
8r	16b
.	16dd
=7	=7
16r	8cc#
16A	.
16c#	8r
16e	.
16a	8r
16g#	.
8f#	16r
.	16d
8r	16f#
.	16a
8r	16dd
.	16cc#
16r	8b
16G#	.
16B	8r
16d#	.
16g#	8r
16f#	.
8e#	16r
.	16c#
8r	16e#
.	16g#
8r	16cc#
.	16b
=8	=8
16r	8a
16F#	.
16A	8r
16c#	.
16f#	8r
16e	.
8d	16r
.	16B
8r	16d
.	16f#
8r	16b
.	16a
16r	16g#
16BB	16f#
16D	16b
16F#	16a
16B	16g#
16A	16f#
16G#	16e#
16C#	16g#
16E#	16cc#
16G#	16b
16c#	16a
16B	16g#
=9	=9
16A	8f#
16B	.
16A	8ff#
16G#	.
16F#	8f#
16E	.
16D	8f#
16E	.
16F#	8c#
16E	.
16D	8f#
16C#	.
16BB	[2.g#O
16D	.
16F#	.
16D	.
16BB	.
16D	.
16GG#	.
16BB	.
16D	.
16BB	.
16GG#	.
16BB	.
=10	=10
8EE#	16g#]
.	16f#
8GG#	16e#
.	16f#
8EE#	16g#
.	16a
8CC#	16b
.	16a
8DD#	16b
.	16ddn
8EE#	16cc#
.	16b
8FF#	16a
.	16f#
8F#	16a
.	16cc#
8D#	16ff#
.	16dd#
8G#	16b#
.	16g#
8F#	16b#
.	16dd#
8G#	16ff#
.	16dd#
=11	=11
4C#	16ee
.	16ff#
.	16ee
.	16dd#
8C#	16cc#
.	16b
4C#	16a
.	16b
.	16cc#
.	16b
8C#	16a
.	16g#
[2.D#	16f#
.	16a
.	16cc#
.	16a
.	16f#
.	16a
.	16d#
.	16f#
.	16a
.	16f#
.	16d#
.	16f#
=12	=12
16D#]	8B#
16C#	.
16BB#	8d#
16C#	.
16D#	8f#
16E	.
16F#	8a
16E	.
16F#	8g#
16A	.
16G#	8b#
16F#	.
16E	16cc#
16C#	16ee
16E	16gg#
16G#	16ee
16c#	16cc#
16G#	16ee
16E	16gg#
16C#	16ee
16E	16cc#
16G#	16ee
16c#	16gg#
16B	16ee
=13	=13
16A#	16cc#
16F#	16ee
16A#	16ff#
16c#	16ee
16f#	16cc#
16c#	16ee
16A#	16ff#
16F#	16ee
16A#	16cc#
16c#	16ee
16f#	16ff#
16e	16a#
16d	16b
16BB	16dd
16D	16ff#
16F#	16dd
16B	16b
16F#	16dd
16D	16ff#
16BB	16dd
16D	16b
16F#	16dd
16B	16ff#
16An	16dd
=14	=14
16G#	16b
16E	16dd
16G#	16ee
16B	16dd
16e	16b
16B	16dd
16G#	16ee
16E	16dd
16G#	16b
16B	16dd
16e	16ee
16d	16g#
16c#	4aW
16d	.
16e	.
16d	.
16c#	8a
16B	.
16A	4aW
16B	.
16c#	.
16B	.
16A	8a
16G#	.
=15	=15
8F#	16a
.	16dd#
8A	16b
.	16a
[8d#	16f#
.	16a
8d#]	16b
.	16dd#
8c#	16b
.	16a
8B	16f#
.	16a
16e	4gnW
16f#	.
16gn	.
16f#	.
16e	8g
16dn	.
16c#	4gW
16d	.
16e	.
16d	.
16c#	8g
16B	.
=16	=16
8A	16gn
.	16ee
8E	16cc#
.	16g
8C#	16e
.	16g
4AA	16cc#
.	16ee
.	16cc#
.	16g
8r	16e
.	16g
16r	8f#
16D	.
16F#	8r
16A	.
16d	8r
16c#	.
8B	16r
.	16G#
8r	16B
.	16d
8r	16g#
.	16f#
=17	=17
16r	8e
16C#	.
16E	8r
16G#	.
16c#	8r
16B	.
8A	16r
.	16F#
8r	16A
.	16c#
8r	16f#
.	16e
16r	8d
16BB	.
16D	8r
16F#	.
16B	8r
16A	.
8G#	16r
.	16E
8r	16G#
.	16B
8r	16e
.	16d
=18	=18
4AAW	16c#
.	16A
.	16c#
.	16e
8AA	16a
.	16e
4AAW	16cc#
.	16a
.	16cc#
.	16ee
8AA	16aa
.	16ff#
[2.BBO	16dd
.	16ff#
.	16aa
.	16ff#
.	16dd
.	16ff#
.	16b
.	16dd
.	16ff#
.	16dd
.	16b
.	16dd
=19	=19
16BB]	8g#
16AA	.
16GG#	8b
16AA	.
16BB	8dd
16C#	.
16D	{8ff#
16C#	.
16D	8ee}
16F#	.
16E	8b
16D	.
16C#	{8ff#
16BB	.
16C#	8ee}
16E	.
16D	8a
16C#	.
16BB	{8ee
16AA	.
16BB	8dd}
16D	.
16C#	8g#
16BB	.
=20	=20
16AA	{8dd
16GG#	.
16AA	8cc#}
16BB	.
16C#	8e
16AA	.
4DW	16f#
.	16g#
.	16a
.	16b
8D	16cc#
.	16dd
2.DO	16g#
.	16e
.	16g#
.	16b
.	16ee
.	16b
.	16gg#
.	16ee
.	16bb
.	16gg#
.	16ee
.	16gg#
=21	=21
16C#	8aa
16D	.
16C#	8ee
16BB	.
16AA	8cc#
16GG#	.
16FF#	16a
16F#	16dd
16E	16cc#
16D	16b
16C#	[8ee
16BB	.
16C#	16ee]
16D	16ff#
8E	8cc#
8EE	16b
.	16a
4.AA;	4.a;
==|!	==|!
*-	*-
!!!CDT: 1685/3//-1750/7/28
!!!OCY: Deutschland
!!!AGN: polyphony
!!!AST: baroque
!!!AMT: compound quadruple
!!!SCA: Bach-Werke-Verzeichnis
!!!YOR: Bach Gesellschaft
!!!AIN: cemb; clavi
!!!EEV: 1.0
!!!RDT: 1986 November
!!!YER: 1995 May 22
!!!YEN: Canada
!!!EFL: 12/15
!!!EED: David Huron
